assets/collections/ps3/logo_mono.svg

<svg version="1.0" viewBox="0 0 667 279.5" xml:space="preserve" xmlns="http://www.w3.org/2000/svg"><path d="M520.96 224.8c6.157-.256 12.684.695 12.684 8.244 0 5.463-4.03 8.521-9.277 8.521-6.147 0-9.268-4.398-9.031-10.229h-7.897c.185 10.074 5.811 16.836 16.929 16.836 9.277 0 17.041-5.627 17.041-14.729 0-6.24-3.283-11.006-8.726-12.092v-.102c4.563-1.709 6.772-5.625 6.772-10.424 0-8.51-7.672-12.846-15.119-12.846-9.736 0-15.588 6.965-15.956 16.406h7.774c-.104-5.002 2.576-9.902 7.998-9.902 4.337 0 7.487 2.793 7.487 6.875 0 5.912-5.38 7.723-10.679 7.59v5.852zm-395.49 22.45h8.684v-18.863h13.103c14.074.063 16.78-9.072 16.78-15.158 0-6.146-2.706-15.25-16.78-15.25H125.47v49.271zm8.684-42.275h12.765c4.567 0 8.475 1.719 8.475 8.193 0 6.207-4.741 8.182-8.648 8.182h-12.591v-16.375zm35.036-6.995h7.891v49.271h-7.891zm46.61 23.04c0-7.568-7.395-10.424-14.371-10.424-7.897 0-15.711 2.721-16.253 11.896h7.938c.241-3.877 3.396-5.625 7.814-5.625 3.248 0 7.416.766 7.416 4.838 0 4.602-5.068 3.938-10.745 5-6.547.758-13.722 2.23-13.722 11.141 0 6.936 5.83 10.412 12.233 10.412 4.199 0 9.226-1.34 12.382-4.367.604 3.324 2.93 4.367 6.04 4.367 1.33 0 3.866-.521 4.956-.85v-5.482c-.767.123-1.448.123-1.841.123-1.488 0-1.846-.756-1.846-2.721V221.02zm-8.004 14.268c0 4.963-5.35 6.762-8.827 6.762-2.788 0-7.237-1.012-7.237-4.563 0-4.174 3.038-5.4 6.439-5.891 3.437-.613 7.237-.613 9.625-2.168v5.86zm24.824 11.932-.899 2.762c-.941 2.955-1.887 4.971-5.575 4.971-1.232 0-2.501-.275-3.728-.572v6.709c1.774.195 3.657.359 5.467.359 8.254 0 10.091-5.779 12.663-12.152l13.901-37.713h-8.295l-9.007 26.656h-.148l-9.334-26.656h-8.546l13.501 35.636zm23.48-16.34c.179 12.273 9.298 17.594 20.591 17.594 9.814 0 19.587-4.43 19.587-15.426 0-5.145-3.079-10.637-9.594-12.682-2.537-.688-13.43-3.488-14.192-3.715-3.539-1.021-5.927-2.895-5.927-6.371 0-5.002 5.028-6.455 9.078-6.455 5.943 0 10.245 2.342 10.684 8.787h8.572c0-10.352-8.572-15.814-18.887-15.814-8.935 0-18.059 4.604-18.059 14.504 0 5.115 2.45 10.281 10.925 12.51 6.766 1.842 11.261 2.773 14.729 4.092 2.03.809 4.097 2.322 4.097 6.004 0 3.816-2.864 7.539-10.464 7.539-6.915 0-12.52-2.967-12.52-10.566h-8.62zm43.03-19.3h5.907v-10.74h7.928v10.74h7.093v5.861h-7.093v19.055c0 3.264.317 4.941 3.764 4.941 1.12 0 2.24 0 3.33-.234v6.014c-1.749.193-3.375.398-5.068.398-8.214 0-9.804-3.119-9.953-9.113v-21.061h-5.907v-5.861zm57.18 9.44c0-7.568-7.375-10.424-14.361-10.424-7.815 0-15.67 2.721-16.212 11.896h7.927c.328-3.877 3.406-5.625 7.886-5.625 3.156 0 7.355.766 7.355 4.838 0 4.602-5.038 3.938-10.746 5-6.597.758-13.722 2.23-13.722 11.141 0 6.936 5.825 10.412 12.193 10.412 4.229 0 9.267-1.34 12.412-4.367.619 3.324 2.9 4.367 6.158 4.367 1.227 0 3.718-.521 4.919-.85v-5.482c-.833.123-1.529.123-1.958.123-1.442 0-1.852-.756-1.852-2.721V221.02zm-7.887 14.268c0 4.963-5.385 6.762-8.863 6.762-2.741 0-7.237-1.012-7.237-4.563 0-4.174 2.997-5.4 6.398-5.891 3.478-.613 7.283-.613 9.702-2.168v5.86zm12.457-23.708h5.927v-10.74h7.927v10.74h7.094v5.861h-7.094v19.055c0 3.264.266 4.941 3.774 4.941 1.078 0 2.199 0 3.319-.234v6.014c-1.698.193-3.396.398-5.1.398-8.244 0-9.773-3.119-9.921-9.113v-21.061h-5.927v-5.861zm27.71 0h7.887v35.668h-7.887zm31.84 36.68c11.467 0 18.023-7.855 18.023-18.83 0-10.945-6.557-18.832-18.023-18.832-11.497 0-18.043 7.887-18.043 18.832 0 10.974 6.546 18.83 18.043 18.83zm0-6.209c-7.098 0-10.167-6.383-10.167-12.621 0-6.18 3.069-12.561 10.167-12.561 7.018 0 10.137 6.381 10.137 12.561-.001 6.238-3.12 12.621-10.137 12.621zm23.97 5.199h7.855v-21.031c0-5.195 3.366-9.348 8.664-9.348 4.603 0 6.813 2.371 6.935 7.926v22.453h7.917v-24.488c0-7.979-4.909-12.162-12.683-12.162-4.654 0-8.776 2.434-11.109 6.414l-.174-.143v-5.289H444.4v35.668zm-55.81-49.27h7.887v7.455h-7.887zm33.07-178.429h-82.591c-25.474 0-37.958 15.741-37.958 36.179v62.087c0 12.684-5.989 21.788-18.631 21.788h-72.24c-.506 0-.925.419-.925.9v12.53c0 .512.419.941.925.941h81.768c25.464 0 37.979-15.67 37.979-36.118V55.73c0-12.694 5.943-21.818 18.657-21.818h73.017c.573 0 1.023-.409 1.023-.921V20.482c0-.491-.451-.931-1.024-.931zm-243.12 0H19.61c-.578 0-.998.44-.998.931v12.509c0 .512.419.941.998.941h149.37c12.627 0 18.621 9.104 18.621 21.797 0 12.643-5.994 21.726-18.621 21.726H50.81c-18.351 0-32.2 15.415-32.2 35.862v39.687c0 .543.419.973.998.973h26.927a.97.97 0 0 0 .967-.973v-39.687c0-12.612 7.247-21.511 17.762-21.511h113.28c25.423 0 37.887-15.62 37.887-36.067 0-20.415-12.464-36.188-37.887-36.188zm457.87 65.535c-.356-.399-.356-1.084 0-1.473 7.917-6.557 11.835-16.438 11.835-27.874 0-20.416-12.438-36.188-37.938-36.188h-158.89c-.542 0-.94.44-.94.972v12.468a.93.93 0 0 0 .94.941h149.35c12.591 0 18.667 9.104 18.667 21.797 0 12.643-6.035 21.726-18.667 21.726h-.185l-149.16.031c-.542 0-.94.389-.94.961v12.459c0 .501.398.9.94.9h149.35c16.468.194 18.636 16.232 18.636 24.436l.031 1.544c0 12.714-6.076 21.859-18.667 21.859h-149.35c-.542 0-.94.388-.94.899v12.49a.93.93 0 0 0 .94.941h158.89c25.521 0 37.938-16.939 37.938-36.189v-1.544c-.001-12.274-3.919-23.996-11.836-31.156z" fill="#fff"/></svg>

<?xml version="1.0" encoding="UTF-8" standalone="no"?><!-- Generator: Gravit.io --><svg xmlns="http://www.w3.org/2000/svg" xmlns:xlink="http://www.w3.org/1999/xlink" style="isolation:isolate" viewBox="0 0 667 279.5" width="667pt" height="279.5pt"><defs><clipPath id="_clipPath_SNuQFVPvQv7uL2fEMHPGoxNsNS9S4XyF"><rect width="667" height="279.5"/></clipPath></defs><g clip-path="url(#_clipPath_SNuQFVPvQv7uL2fEMHPGoxNsNS9S4XyF)"><path d=" M 520.959 224.799 C 527.116 224.543 533.643 225.494 533.643 233.043 C 533.643 238.506 529.613 241.564 524.366 241.564 C 518.219 241.564 515.098 237.166 515.335 231.335 L 507.438 231.335 C 507.623 241.409 513.249 248.171 524.367 248.171 C 533.644 248.171 541.408 242.544 541.408 233.442 C 541.408 227.202 538.125 222.436 532.682 221.35 L 532.682 221.248 C 537.245 219.539 539.454 215.623 539.454 210.824 C 539.454 202.314 531.782 197.978 524.335 197.978 C 514.599 197.978 508.747 204.943 508.379 214.384 L 516.153 214.384 C 516.049 209.382 518.729 204.482 524.151 204.482 C 528.488 204.482 531.638 207.275 531.638 211.357 C 531.638 217.269 526.258 219.08 520.959 218.947 L 520.959 224.799 L 520.959 224.799 Z " fill="rgb(255,255,255)"/><path d=" M 125.468 247.252 L 134.152 247.252 L 134.152 228.389 L 147.255 228.389 C 161.329 228.452 164.035 219.317 164.035 213.231 C 164.035 207.085 161.329 197.981 147.255 197.981 L 125.468 197.981 L 125.468 247.252 L 125.468 247.252 Z  M 134.152 204.977 L 146.917 204.977 C 151.484 204.977 155.392 206.696 155.392 213.17 C 155.392 219.377 150.651 221.352 146.744 221.352 L 134.153 221.352 L 134.153 204.977 L 134.152 204.977 Z " fill="rgb(255,255,255)"/><rect x="169.186" y="197.98" width="7.891" height="49.271" transform="matrix(1,0,0,1,0,0)" fill="rgb(255,255,255)"/><path d=" M 215.797 221.025 C 215.797 213.457 208.402 210.601 201.426 210.601 C 193.529 210.601 185.715 213.322 185.173 222.497 L 193.111 222.497 C 193.352 218.62 196.507 216.872 200.925 216.872 C 204.173 216.872 208.341 217.638 208.341 221.71 C 208.341 226.312 203.273 225.648 197.596 226.71 C 191.049 227.468 183.874 228.94 183.874 237.851 C 183.874 244.787 189.704 248.263 196.107 248.263 C 200.306 248.263 205.333 246.923 208.489 243.896 C 209.093 247.22 211.419 248.263 214.529 248.263 C 215.859 248.263 218.395 247.742 219.485 247.413 L 219.485 241.931 C 218.718 242.054 218.037 242.054 217.644 242.054 C 216.156 242.054 215.798 241.298 215.798 239.333 L 215.798 221.025 L 215.797 221.025 Z  M 207.793 235.293 C 207.793 240.256 202.443 242.055 198.966 242.055 C 196.178 242.055 191.729 241.043 191.729 237.492 C 191.729 233.318 194.767 232.092 198.168 231.601 C 201.605 230.988 205.405 230.988 207.793 229.433 L 207.793 235.293 L 207.793 235.293 Z " fill="rgb(255,255,255)"/><path d=" M 232.618 247.221 L 231.719 249.983 C 230.778 252.938 229.832 254.954 226.144 254.954 C 224.912 254.954 223.643 254.679 222.416 254.382 L 222.416 261.091 C 224.19 261.286 226.073 261.45 227.883 261.45 C 236.137 261.45 237.974 255.671 240.546 249.298 L 254.447 211.585 L 246.152 211.585 L 237.145 238.241 L 236.997 238.241 L 227.663 211.585 L 219.117 211.585 L 232.618 247.221 L 232.618 247.221 Z " fill="rgb(255,255,255)"/><path d=" M 256.103 230.875 C 256.282 243.148 265.401 248.469 276.694 248.469 C 286.508 248.469 296.281 244.039 296.281 233.043 C 296.281 227.898 293.202 222.406 286.687 220.361 C 284.15 219.673 273.257 216.873 272.495 216.646 C 268.956 215.625 266.568 213.751 266.568 210.275 C 266.568 205.273 271.596 203.82 275.646 203.82 C 281.589 203.82 285.891 206.162 286.33 212.607 L 294.902 212.607 C 294.902 202.255 286.33 196.793 276.015 196.793 C 267.08 196.793 257.956 201.397 257.956 211.297 C 257.956 216.412 260.406 221.578 268.881 223.807 C 275.647 225.649 280.142 226.58 283.61 227.899 C 285.64 228.708 287.707 230.221 287.707 233.903 C 287.707 237.719 284.843 241.442 277.243 241.442 C 270.328 241.442 264.723 238.475 264.723 230.876 L 256.103 230.876 L 256.103 230.875 Z " fill="rgb(255,255,255)"/><path d=" M 299.13 211.584 L 305.037 211.584 L 305.037 200.844 L 312.965 200.844 L 312.965 211.584 L 320.058 211.584 L 320.058 217.445 L 312.965 217.445 L 312.965 236.5 C 312.965 239.764 313.282 241.441 316.729 241.441 C 317.849 241.441 318.969 241.441 320.059 241.207 L 320.059 247.221 C 318.31 247.414 316.684 247.619 314.991 247.619 C 306.777 247.619 305.187 244.5 305.038 238.506 L 305.038 217.445 L 299.131 217.445 L 299.131 211.584 L 299.13 211.584 Z " fill="rgb(255,255,255)"/><path d=" M 356.309 221.025 C 356.309 213.457 348.934 210.601 341.948 210.601 C 334.133 210.601 326.278 213.322 325.736 222.497 L 333.663 222.497 C 333.991 218.62 337.069 216.872 341.549 216.872 C 344.705 216.872 348.904 217.638 348.904 221.71 C 348.904 226.312 343.866 225.648 338.158 226.71 C 331.561 227.468 324.436 228.94 324.436 237.851 C 324.436 244.787 330.261 248.263 336.629 248.263 C 340.858 248.263 345.896 246.923 349.041 243.896 C 349.66 247.22 351.941 248.263 355.199 248.263 C 356.426 248.263 358.917 247.742 360.118 247.413 L 360.118 241.931 C 359.285 242.054 358.589 242.054 358.16 242.054 C 356.718 242.054 356.308 241.298 356.308 239.333 L 356.308 221.025 L 356.309 221.025 Z  M 348.422 235.293 C 348.422 240.256 343.037 242.055 339.559 242.055 C 336.818 242.055 332.322 241.043 332.322 237.492 C 332.322 233.318 335.319 232.092 338.72 231.601 C 342.198 230.988 346.003 230.988 348.422 229.433 L 348.422 235.293 L 348.422 235.293 Z " fill="rgb(255,255,255)"/><path d=" M 360.876 211.584 L 366.803 211.584 L 366.803 200.844 L 374.73 200.844 L 374.73 211.584 L 381.824 211.584 L 381.824 217.445 L 374.73 217.445 L 374.73 236.5 C 374.73 239.764 374.996 241.441 378.504 241.441 C 379.582 241.441 380.703 241.441 381.823 241.207 L 381.823 247.221 C 380.125 247.414 378.427 247.619 376.723 247.619 C 368.479 247.619 366.95 244.5 366.802 238.506 L 366.802 217.445 L 360.875 217.445 L 360.875 211.584 L 360.876 211.584 Z " fill="rgb(255,255,255)"/><rect x="388.59" y="211.584" width="7.887" height="35.668" transform="matrix(1,0,0,1,0,0)" fill="rgb(255,255,255)"/><path d=" M 420.432 248.264 C 431.899 248.264 438.455 240.409 438.455 229.434 C 438.455 218.489 431.898 210.602 420.432 210.602 C 408.935 210.602 402.389 218.489 402.389 229.434 C 402.389 240.408 408.935 248.264 420.432 248.264 Z  M 420.432 242.055 C 413.334 242.055 410.265 235.672 410.265 229.434 C 410.265 223.254 413.334 216.873 420.432 216.873 C 427.45 216.873 430.569 223.254 430.569 229.434 C 430.568 235.672 427.449 242.055 420.432 242.055 Z " fill="rgb(255,255,255)"/><path d=" M 444.397 247.252 L 452.252 247.252 L 452.252 226.221 C 452.252 221.026 455.618 216.873 460.916 216.873 C 465.519 216.873 467.729 219.244 467.851 224.799 L 467.851 247.252 L 475.768 247.252 L 475.768 222.764 C 475.768 214.785 470.859 210.602 463.085 210.602 C 458.431 210.602 454.309 213.036 451.976 217.016 L 451.802 216.873 L 451.802 211.584 L 444.397 211.584 L 444.397 247.252 L 444.397 247.252 Z " fill="rgb(255,255,255)"/><rect x="388.59" y="197.98" width="7.887" height="7.455" transform="matrix(1,0,0,1,0,0)" fill="rgb(255,255,255)"/><path d=" M 421.659 19.551 L 339.068 19.551 C 313.594 19.551 301.11 35.292 301.11 55.73 L 301.11 117.817 C 301.11 130.501 295.121 139.605 282.479 139.605 L 210.239 139.605 C 209.733 139.605 209.314 140.024 209.314 140.505 L 209.314 153.035 C 209.314 153.547 209.733 153.976 210.239 153.976 L 292.007 153.976 C 317.471 153.976 329.986 138.306 329.986 117.858 L 329.986 55.73 C 329.986 43.036 335.929 33.912 348.643 33.912 L 421.66 33.912 C 422.233 33.912 422.683 33.503 422.683 32.991 L 422.683 20.482 C 422.683 19.991 422.232 19.551 421.659 19.551 Z " fill="rgb(255,255,255)"/><path d=" M 178.54 19.551 L 19.607 19.551 C 19.029 19.551 18.609 19.991 18.609 20.482 L 18.609 32.991 C 18.609 33.503 19.028 33.932 19.607 33.932 L 168.981 33.932 C 181.608 33.932 187.602 43.036 187.602 55.729 C 187.602 68.372 181.608 77.455 168.981 77.455 L 50.81 77.455 C 32.459 77.455 18.61 92.87 18.61 113.317 L 18.61 153.004 C 18.61 153.547 19.029 153.977 19.608 153.977 L 46.535 153.977 C 47.062 153.977 47.502 153.547 47.502 153.004 L 47.502 113.317 C 47.502 100.705 54.749 91.806 65.264 91.806 L 178.54 91.806 C 203.963 91.806 216.427 76.186 216.427 55.739 C 216.427 35.324 203.963 19.551 178.54 19.551 Z " fill="rgb(255,255,255)"/><path d=" M 636.409 85.086 C 636.053 84.687 636.053 84.002 636.409 83.613 C 644.326 77.056 648.244 67.175 648.244 55.739 C 648.244 35.323 635.806 19.551 610.306 19.551 L 451.414 19.551 C 450.872 19.551 450.474 19.991 450.474 20.523 L 450.474 32.991 C 450.474 33.503 450.872 33.932 451.414 33.932 L 600.764 33.932 C 613.355 33.932 619.431 43.036 619.431 55.729 C 619.431 68.372 613.396 77.455 600.764 77.455 L 600.579 77.455 L 451.414 77.486 C 450.872 77.486 450.474 77.875 450.474 78.447 L 450.474 90.906 C 450.474 91.407 450.872 91.806 451.414 91.806 L 600.764 91.806 C 617.232 92 619.4 108.038 619.4 116.242 L 619.431 117.786 C 619.431 130.5 613.355 139.645 600.764 139.645 L 451.414 139.645 C 450.872 139.645 450.474 140.033 450.474 140.544 L 450.474 153.034 C 450.474 153.546 450.872 153.975 451.414 153.975 L 610.307 153.975 C 635.828 153.975 648.245 137.036 648.245 117.786 L 648.245 116.242 C 648.244 103.968 644.326 92.246 636.409 85.086 Z " fill="rgb(255,255,255)"/></g></svg>
